dist/uploads/PAYPAL.svg

<svg width="40" height="25" viewBox="0 0 40 25" fill="none" xmlns="http://www.w3.org/2000/svg">
<path d="M37.3333 24.8458H2.66667C1.19444 24.8458 0 23.7329 0 22.3612V2.48458C0 1.11288 1.19444 0 2.66667 0H37.3333C38.8056 0 40 1.11288 40 2.48458V22.3612C40 23.7329 38.8056 24.8458 37.3333 24.8458ZM15.5911 10.6889C15.5267 10.6899 15.47 10.7179 15.4333 10.7613C15.3911 10.8017 15.3644 10.8566 15.3633 10.9166C15.3633 10.9384 15.4722 11.2479 15.7056 11.8825L16.21 13.2552L16.4444 13.895C16.7074 14.6128 16.8448 14.9944 16.8567 15.04C16.3556 15.6156 15.88 16.2574 15.4578 16.9324L15.4156 17.0049C15.4144 17.0132 15.4133 17.0214 15.4133 17.0308C15.4133 17.1343 15.5033 17.2192 15.6156 17.2192C15.6256 17.2192 15.6356 17.2181 15.6456 17.2171H15.6444H16.9978C17.1311 17.2161 17.2467 17.1508 17.3122 17.0525L17.3133 17.0515L21.7933 11.0274C21.8156 10.9994 21.83 10.9653 21.83 10.927C21.83 10.9218 21.83 10.9166 21.8289 10.9114V10.9125C21.8267 10.8514 21.8011 10.7976 21.7589 10.7572C21.7222 10.7137 21.6656 10.6858 21.6022 10.6847H20.2478C20.1144 10.6858 19.9978 10.751 19.9322 10.8493L19.9311 10.8504L18.0644 13.4033L17.2922 10.9477C17.2511 10.7955 17.1056 10.6847 16.9333 10.6847C16.9233 10.6847 16.9144 10.6847 16.9044 10.6858H16.9056L15.5911 10.6889ZM31.1222 10.574C31.1133 10.574 31.1033 10.574 31.0933 10.574C30.2511 10.574 29.4944 10.9146 28.9722 11.4549L28.97 11.457C28.42 11.9881 28.0811 12.7117 28.0811 13.5089V13.5368V13.5358C28.0789 13.5658 28.0789 13.602 28.0789 13.6372C28.0789 14.1932 28.3111 14.6994 28.6889 15.0752L28.6878 15.0742C29.0811 15.4303 29.6189 15.6497 30.2111 15.6497C30.2467 15.6497 30.2833 15.6487 30.3189 15.6477H30.3133C30.6878 15.6435 31.0433 15.5721 31.3678 15.4437L31.35 15.4499C31.6778 15.335 31.9556 15.1559 32.1744 14.9282L32.1767 14.9261C32.1656 14.9851 32.1533 15.0348 32.1389 15.0824L32.1411 15.0721C32.1222 15.1301 32.11 15.1973 32.1056 15.2667V15.2688C32.1056 15.4427 32.1822 15.5307 32.3344 15.5307H33.5467C33.5567 15.5317 33.5667 15.5317 33.5789 15.5317C33.7678 15.5317 33.9222 15.394 33.9333 15.2212V15.2201L34.6533 10.9477C34.6556 10.9353 34.6578 10.9208 34.6578 10.9063C34.6578 10.8524 34.6367 10.8027 34.6011 10.7644C34.5611 10.7137 34.4978 10.6816 34.4267 10.6816C34.4256 10.6816 34.4244 10.6816 34.4233 10.6816H33.09C32.9267 10.6816 32.8233 10.8628 32.79 11.222C32.4489 10.8172 31.9244 10.5605 31.3344 10.5605C31.26 10.5605 31.1856 10.5646 31.1133 10.5729L31.1222 10.5719V10.574ZM11.1633 10.574C11.1544 10.574 11.1433 10.574 11.1322 10.574C10.2911 10.574 9.53444 10.9146 9.01444 11.4549L9.01222 11.457C8.46222 11.9881 8.12333 12.7117 8.12333 13.5089V13.5368V13.5358C8.12222 13.5658 8.12111 13.6 8.12111 13.6352C8.12111 14.1921 8.35333 14.6984 8.73222 15.0742L8.73111 15.0731C9.12444 15.4292 9.66222 15.6487 10.2556 15.6487C10.2911 15.6487 10.3267 15.6477 10.3622 15.6466H10.3567C10.7256 15.6415 11.0756 15.57 11.3944 15.4427L11.3767 15.4489C11.7089 15.3309 11.9911 15.1528 12.2189 14.9261L12.22 14.9251C12.1789 15.0265 12.1533 15.1445 12.15 15.2667V15.2688C12.15 15.4427 12.2278 15.5307 12.3789 15.5307H13.59C13.6 15.5317 13.61 15.5317 13.6222 15.5317C13.8111 15.5317 13.9656 15.394 13.9767 15.2212V15.2201L14.6978 10.9477C14.7 10.9363 14.7011 10.9239 14.7011 10.9104C14.7011 10.8555 14.68 10.8048 14.6444 10.7665C14.6044 10.7158 14.5411 10.6837 14.47 10.6837C14.4689 10.6837 14.4678 10.6837 14.4667 10.6837H13.1333C12.97 10.6837 12.8667 10.8649 12.8344 11.2241C12.4878 10.8203 11.9589 10.5636 11.3656 10.5636C11.2944 10.5636 11.2256 10.5677 11.1567 10.574L11.1656 10.5729L11.1633 10.574ZM36.2356 8.28193C36.23 8.28193 36.2244 8.2809 36.2178 8.2809C36.1067 8.2809 36.0156 8.36061 36.0067 8.46103L34.8644 15.2719C34.86 15.2874 34.8567 15.305 34.8567 15.3226C34.8567 15.3754 34.88 15.4241 34.9167 15.4593C34.9578 15.5048 35.0189 15.5328 35.0878 15.5328H35.0944H36.2544C36.2656 15.5338 36.2778 15.5348 36.29 15.5348C36.4744 15.5348 36.6233 15.3961 36.6233 15.2243C36.6233 15.2232 36.6233 15.2232 36.6233 15.2222L37.7633 8.52936C37.7644 8.52211 37.7644 8.51486 37.7644 8.50658C37.7644 8.4455 37.7422 8.38856 37.7056 8.34301V8.34405C37.6667 8.30574 37.6111 8.2809 37.55 8.2809C37.5444 8.2809 37.5389 8.2809 37.5333 8.28193H36.2356ZM23.2689 8.28193C23.2556 8.27986 23.24 8.27883 23.2244 8.27883C23.0378 8.27883 22.8856 8.41858 22.8822 8.59147L21.7411 15.2708C21.7389 15.2822 21.7378 15.2947 21.7378 15.3081C21.7378 15.363 21.7589 15.4127 21.7933 15.451C21.8322 15.5017 21.8956 15.5338 21.9667 15.5338H21.9711H23.4122H23.4167C23.5533 15.5338 23.6667 15.4427 23.6922 15.3226V15.3205L24.0089 13.4219C24.0189 13.336 24.0644 13.2614 24.1322 13.2097C24.2056 13.1538 24.2978 13.1165 24.3967 13.1031H24.4C24.49 13.0875 24.5933 13.0792 24.6989 13.0782C24.7922 13.0782 24.9044 13.0834 25.0333 13.0948C25.1622 13.1062 25.2444 13.1113 25.28 13.1113C25.3333 13.1144 25.3956 13.1155 25.4578 13.1155C26.3056 13.1155 27.0767 12.8122 27.6533 12.3152L27.6511 12.3173C28.1867 11.7873 28.5167 11.0709 28.5167 10.2831C28.5167 10.224 28.5144 10.1661 28.5111 10.1071V10.1153C28.5144 10.076 28.5167 10.0305 28.5167 9.98387C28.5167 9.46625 28.25 9.00764 27.8389 8.71777L27.8344 8.71466C27.3722 8.44032 26.8089 8.27779 26.2044 8.27779C26.1544 8.27779 26.1056 8.27883 26.0567 8.2809H26.0633L23.2689 8.28193ZM3.28889 8.28193C3.27778 8.2809 3.26556 8.27986 3.25333 8.27986C3.06889 8.27986 2.92 8.41858 2.92 8.59044V8.59251L1.77778 15.2719C1.77556 15.2833 1.77444 15.2967 1.77444 15.3102C1.77444 15.364 1.79556 15.4137 1.83 15.452C1.86889 15.5027 1.93222 15.5348 2.00333 15.5348H2.00778H3.34111C3.35444 15.5369 3.37 15.5379 3.38556 15.5379C3.57222 15.5379 3.72444 15.3982 3.72778 15.2253L4.04444 13.425C4.05444 13.3391 4.1 13.2646 4.16667 13.2128C4.24 13.1569 4.33222 13.1196 4.43111 13.1062H4.43444C4.52333 13.0906 4.62667 13.0823 4.73222 13.0813H4.73333C4.82667 13.0813 4.93778 13.0865 5.06667 13.0979C5.19556 13.1093 5.27778 13.1144 5.31333 13.1144C5.36667 13.1175 5.42778 13.1186 5.49 13.1186C6.33778 13.1186 7.10889 12.8153 7.68667 12.3183L7.68444 12.3204C8.22 11.7904 8.55 11.0729 8.55 10.2851C8.55 10.2261 8.54778 10.1681 8.54445 10.1102V10.1185C8.54778 10.0791 8.55 10.0336 8.55 9.98698C8.55 9.46936 8.28333 9.01074 7.87222 8.72087L7.86778 8.71777C7.40556 8.44343 6.84222 8.27986 6.23778 8.27986C6.19111 8.27986 6.14444 8.2809 6.09778 8.28297H6.10444L3.28889 8.28193ZM31.0489 14.3226C31.0333 14.3236 31.0144 14.3236 30.9956 14.3236C30.7 14.3236 30.43 14.2242 30.22 14.0596L30.2222 14.0607C30.0267 13.8919 29.9044 13.6517 29.9044 13.3846C29.9044 13.3691 29.9044 13.3536 29.9056 13.3381V13.3401C29.9056 13.3308 29.9056 13.3205 29.9056 13.3101C29.9056 12.9229 30.0733 12.572 30.3456 12.3173C30.6133 12.0616 30.9867 11.9032 31.4 11.9032H31.4367H31.4344C31.4456 11.9032 31.4589 11.9022 31.4722 11.9022C31.7711 11.9022 32.0433 12.0047 32.2522 12.1734L32.2511 12.1724C32.4522 12.3463 32.5778 12.5947 32.5778 12.8701C32.5778 12.8867 32.5778 12.9033 32.5767 12.9198V12.9177V12.9426C32.5767 13.3246 32.4067 13.6704 32.1322 13.9157C31.8622 14.1662 31.4889 14.3205 31.0778 14.3205C31.0689 14.3205 31.0589 14.3205 31.05 14.3205L31.0489 14.3226ZM11.0722 14.3226C11.0556 14.3236 11.0367 14.3236 11.0167 14.3236C10.7256 14.3236 10.4578 14.2242 10.2533 14.0596L10.2544 14.0607C10.0644 13.8909 9.94556 13.6517 9.94556 13.3867C9.94556 13.3701 9.94556 13.3536 9.94667 13.3381V13.3401C9.94667 13.3308 9.94667 13.3205 9.94667 13.3101C9.94667 12.9229 10.1144 12.572 10.3867 12.3173C10.6544 12.0616 11.0267 11.9032 11.44 11.9032H11.4789H11.4767C11.4878 11.9032 11.5011 11.9022 11.5144 11.9022C11.8133 11.9022 12.0856 12.0047 12.2944 12.1734L12.2933 12.1724C12.4944 12.3463 12.6189 12.5947 12.6189 12.8691C12.6189 12.8857 12.6189 12.9033 12.6178 12.9198V12.9177V12.954C12.6178 13.336 12.4478 13.6797 12.1733 13.925C11.8989 14.1704 11.5256 14.3226 11.1133 14.3226C11.1 14.3226 11.0856 14.3226 11.0722 14.3226ZM24.3022 11.6723L24.6011 9.92175C24.61 9.8203 24.7011 9.74162 24.8111 9.74162C24.8178 9.74162 24.8244 9.74162 24.83 9.74266H25.1456C25.1656 9.74266 25.19 9.74162 25.2133 9.74162C25.4056 9.74162 25.5956 9.75405 25.7811 9.77786L25.76 9.77579C25.9322 9.80477 26.0822 9.87724 26.2 9.98076C26.3311 10.0967 26.4122 10.2592 26.4122 10.4404C26.4122 10.4539 26.4122 10.4673 26.4111 10.4798V10.4777C26.4167 10.517 26.42 10.5615 26.42 10.6081C26.42 10.929 26.2678 11.2158 26.0267 11.4104L26.0256 11.4115C25.73 11.5699 25.3756 11.6641 24.9978 11.6641C24.9511 11.6641 24.9056 11.663 24.8589 11.6599H24.8656L24.3044 11.6765L24.3022 11.6723ZM4.32556 11.6723L4.62444 9.92175C4.63333 9.8203 4.72333 9.74162 4.83333 9.74162C4.84 9.74162 4.84667 9.74162 4.85333 9.74266H5.18556C5.22778 9.73955 5.27667 9.73748 5.32556 9.73748C5.64556 9.73748 5.94889 9.80891 6.21556 9.93521L6.20444 9.93004C6.41444 10.0553 6.48556 10.3214 6.41556 10.723C6.40333 11.0388 6.22667 11.3131 5.96222 11.4746L5.95889 11.4767C5.57667 11.6102 5.13444 11.6879 4.67222 11.6879C4.55 11.6879 4.42889 11.6827 4.31 11.6713L4.32556 11.6723Z" fill="white"/>
</svg>

<svg width="40" height="25" fill="none" xmlns="http://www.w3.org/2000/svg"><path d="M37.333 24.846H2.667C1.194 24.846 0 23.733 0 22.36V2.485C0 1.113 1.194 0 2.667 0h34.666C38.806 0 40 1.113 40 2.485V22.36c0 1.372-1.194 2.485-2.667 2.485zM15.591 10.689a.21.21 0 00-.158.072.221.221 0 00-.07.156c0 .021.11.33.343.966l.504 1.372.234.64c.263.718.4 1.1.413 1.145a15.087 15.087 0 00-1.4 1.892l-.041.073a.174.174 0 00-.003.026c0 .103.09.188.203.188.01 0 .02 0 .03-.002h-.002 1.354a.379.379 0 00.314-.165h.001l4.48-6.025a.16.16 0 00.037-.1l-.001-.016v.002a.223.223 0 00-.07-.156.21.21 0 00-.157-.072h-1.354a.381.381 0 00-.316.164v.001l-1.868 2.553-.772-2.455a.367.367 0 00-.388-.262h.002l-1.315.003zm15.531-.115h-.029c-.842 0-1.599.34-2.12.88l-.003.003a2.845 2.845 0 00-.889 2.052v.028-.001c-.002.03-.002.066-.002.101 0 .556.232 1.062.61 1.438h-.001a2.265 2.265 0 001.63.573h-.005a2.95 2.95 0 001.055-.204l-.018.006c.328-.115.606-.294.824-.522l.003-.002a1.462 1.462 0 01-.038.156l.002-.01a.802.802 0 00-.035.195v.002c0 .174.076.262.228.262h1.245c.189 0 .343-.137.354-.31l.72-4.273a.208.208 0 00-.052-.183.221.221 0 00-.174-.083H33.09c-.163 0-.267.18-.3.54a1.894 1.894 0 00-1.456-.662 2 2 0 00-.22.013l.008-.001v.002zm-19.959 0h-.03c-.842 0-1.599.34-2.119.88l-.002.003a2.845 2.845 0 00-.889 2.052v.028-.001l-.002.1c0 .556.232 1.062.611 1.438a2.266 2.266 0 001.63.573h-.005a2.9 2.9 0 001.037-.204l-.017.006c.332-.118.614-.296.842-.523h.001a.99.99 0 00-.07.34v.003c0 .174.078.262.229.262h1.243c.19 0 .344-.137.355-.31l.72-4.273a.21.21 0 00-.053-.181.221.221 0 00-.174-.083h-1.337c-.163 0-.266.18-.299.54a1.928 1.928 0 00-1.468-.66c-.072 0-.14.004-.21.01l.01-.001-.003.001zm25.073-2.292l-.018-.001c-.111 0-.202.08-.211.18l-1.143 6.81a.189.189 0 00-.007.052.19.19 0 00.06.136.229.229 0 00.17.074h1.168a.402.402 0 00.036.002c.184 0 .333-.139.333-.31v-.003l1.14-6.693.001-.022a.261.261 0 00-.058-.164v.001a.222.222 0 00-.173-.062h-1.297zm-12.967 0a.298.298 0 00-.045-.003c-.186 0-.338.14-.342.312l-1.14 6.68a.213.213 0 00.052.18c.038.05.102.083.173.083h1.45c.136 0 .25-.091.275-.211v-.003l.317-1.898a.312.312 0 01.123-.212.563.563 0 01.265-.107h.003c.09-.015.193-.024.299-.025.093 0 .205.005.334.017.13.011.211.016.247.016a3.354 3.354 0 002.373-.796l-.002.002a2.855 2.855 0 00.86-2.21v.008a1.551 1.551 0 00-.672-1.398l-.005-.002a3.199 3.199 0 00-1.777-.434h.006-2.794zm-19.98 0a.387.387 0 00-.036-.002c-.184 0-.333.139-.333.31v.003l-1.142 6.679a.212.212 0 00.052.18.22.22 0 00.173.083h1.338a.294.294 0 00.045.003c.186 0 .338-.14.342-.313l.316-1.8a.315.315 0 01.123-.212.562.562 0 01.264-.107h.003c.09-.015.193-.024.298-.025h.001c.094 0 .205.005.334.017.129.011.21.016.246.016a3.36 3.36 0 002.373-.796l-.002.002a2.857 2.857 0 00.86-2.21v.008a1.551 1.551 0 00-.672-1.398l-.004-.002a3.2 3.2 0 00-1.77-.435h.006L3.29 8.282zm27.76 6.04c-.016.002-.035.002-.053.002-.296 0-.566-.1-.776-.264h.002a.891.891 0 01-.316-.722v-.028c0-.387.167-.738.44-.993a1.522 1.522 0 011.054-.414h.037-.003.038c.3 0 .571.102.78.27a.92.92 0 01.326.697l-.001.05v-.002.025c0 .382-.17.727-.445.973-.27.25-.643.404-1.054.404h-.028l-.001.003zm-19.977 0c-.016.002-.035.002-.055.002-.291 0-.56-.1-.764-.264h.001a.902.902 0 01-.308-.673v-.077c0-.387.168-.738.44-.993a1.52 1.52 0 011.054-.414h.039-.002.037c.3 0 .572.102.78.27a.92.92 0 01.325.696l-.001.05v-.001.036c0 .382-.17.726-.445.971a1.587 1.587 0 01-1.06.398h-.04zm13.23-2.65l.3-1.75c.008-.102.1-.18.21-.18h.401c.193 0 .383.012.568.036l-.021-.002a.884.884 0 01.44.205.611.611 0 01.212.46v.039-.002a1.03 1.03 0 01-.384.933h-.002a2.184 2.184 0 01-1.167.249h.007l-.562.017-.002-.005zm-19.976 0l.298-1.75a.204.204 0 01.23-.18h.332c.042-.002.09-.005.14-.005.32 0 .623.072.89.198l-.012-.005c.21.125.282.391.212.793a.924.924 0 01-.454.752l-.003.002a3.94 3.94 0 01-1.649.194l.016.001z" fill="#fff"/></svg>
